X:876
T:Reel 876
M:4/4
K:Amix
L:1/8
D|GEEF ECB,C|DB,DC B,CDF|EDEF GFGA|BedB AcBA|GEEF EDB,C|DB,EC DCB,A,|CB,CD EDEF|GEDB, CA,A,|D|EAAG A2AG|EGAF GEDF|EAAG A2AB|ceec B2AG|EGAB A2EF|GEAF GEDF|EDEF G2GA|Beed BAA|
